dist/img/contacts-map.svg

<svg width="32" height="41" viewBox="0 0 32 41" fill="none" xmlns="http://www.w3.org/2000/svg">
<path d="M16 0.771484C7.17755 0.771484 0 7.82267 0 16.4897C0 19.985 0.817527 23.4373 2.42987 26.7507C3.70862 29.3785 5.48692 31.9223 7.71532 34.3115C11.4925 38.3611 15.2321 40.5542 15.3895 40.6455L16 41.0001L16.6105 40.6455C16.7679 40.5542 20.5076 38.3612 24.2847 34.3115C26.5131 31.9223 28.2914 29.3784 29.5701 26.7507C31.1825 23.4373 32 19.985 32 16.4897C31.9999 7.82267 24.8224 0.771484 16 0.771484V0.771484ZM27.4227 25.6986C26.254 28.1102 24.6187 30.4554 22.5624 32.669C19.8874 35.5485 17.1777 37.4617 15.9993 38.2327C14.8296 37.4686 12.1533 35.5806 9.48434 32.7192C7.41621 30.5018 5.771 28.1517 4.59461 25.7342C3.13799 22.7407 2.3994 19.6304 2.3994 16.4898C2.39932 9.12236 8.50054 3.12856 16 3.12856C23.4995 3.12856 29.6007 9.12236 29.6007 16.4897C29.6006 19.6179 28.8679 22.7162 27.4227 25.6986Z" fill="#EB0002"/>
<path d="M21.2559 15.6383C21.2559 18.4503 18.9305 20.7601 16.0244 20.7601C13.1183 20.7601 10.793 18.4503 10.793 15.6383C10.793 12.8264 13.1183 10.5166 16.0244 10.5166C18.9305 10.5166 21.2559 12.8264 21.2559 15.6383Z" stroke="#EB0002" stroke-width="2"/>
</svg>

<svg width="32" height="41" fill="none" xmlns="http://www.w3.org/2000/svg"><path d="M16 .771C7.178.771 0 7.823 0 16.49c0 3.495.818 6.947 2.43 10.26 1.279 2.628 3.057 5.172 5.285 7.562 3.777 4.05 7.517 6.242 7.675 6.334L16 41l.61-.355c.158-.09 3.898-2.284 7.675-6.334 2.228-2.389 4.006-4.933 5.285-7.56C31.183 23.437 32 19.985 32 16.49 32 7.823 24.822.77 16 .77zM27.423 25.7c-1.169 2.411-2.804 4.756-4.86 6.97-2.676 2.88-5.385 4.793-6.564 5.564-1.17-.764-3.846-2.652-6.515-5.514-2.068-2.217-3.713-4.567-4.89-6.985C3.139 22.741 2.4 19.63 2.4 16.49 2.4 9.122 8.501 3.129 16 3.129c7.5 0 13.6 5.993 13.6 13.36 0 3.129-.732 6.227-2.177 9.21z" fill="#EB0002"/><path d="M21.256 15.638c0 2.812-2.326 5.122-5.232 5.122s-5.231-2.31-5.231-5.122 2.325-5.121 5.231-5.121c2.906 0 5.232 2.31 5.232 5.121z" stroke="#EB0002" stroke-width="2"/></svg>
